X:295
T: Round The Corner
C: Andy Cutting
R: polka 32 schottische
R: barndance
M: 4/4
L: 1/8
K:Gmaj
|:G2 AB A2 G(A|A)B BA Bc d2 |G2 AB A2 GA |cB AG EG ED :|
|:e2 dc BA Bc |d2 BA GE E2 |cB AG D2 G(E|E) c2 B cd BA :|

